packages/icons/src/__generated__/nav/svg/nav-signinProduct-12-inactive.svg

<svg xmlns="http://www.w3.org/2000/svg" fill="#1652F0" viewBox="0 0 12 12"><path d="m9.989 5.995-5-5h6v10h-6l5-5Z"/><path d="M4.989 9.795v-2.05h-4v-3.5h4v-2.05l3.8 3.8-3.8 3.8Zm.8-2.85v.919l1.868-1.869L5.79 4.127v.918h-4v1.9h4Z"/></svg>

<svg xmlns="http://www.w3.org/2000/svg" fill="#1652F0" viewBox="0 0 12 12"><path d="M10 6 5 1h6v10H5l5-5Z"/><path d="M5 9.8V7.75H1v-3.5h4V2.2L8.8 6 5 9.8Zm.8-2.85v.919L7.669 6 5.8 4.131v.919h-4v1.9h4Z"/></svg>
